client/src/assets/icons/generator.svg

<svg width="58" height="58" viewBox="0 0 58 58" fill="none" xmlns="http://www.w3.org/2000/svg">
<path d="M14.5 7.25C13.2181 7.25 11.9888 7.75922 11.0823 8.66565C10.1759 9.57208 9.66668 10.8015 9.66668 12.0833V38.6667H14.5V41.0833C14.5 42.4125 15.5875 43.5 16.9167 43.5H19.3333C20.6625 43.5 21.75 42.4125 21.75 41.0833V38.6667H36.25V41.0833C36.25 42.4125 37.3375 43.5 38.6667 43.5H41.0833C42.4125 43.5 43.5 42.4125 43.5 41.0833V38.6667H48.3333V12.0833C48.3333 10.8015 47.8241 9.57208 46.9177 8.66565C46.0113 7.75922 44.7819 7.25 43.5 7.25H14.5ZM29 16.9167V12.0833H43.5V16.9167H29ZM29 21.75H43.5V26.5833H29V21.75ZM19.3333 12.0833V21.75H24.1667L16.9167 36.25V26.5833H12.0833L19.3333 12.0833ZM53.1667 48.3333V53.1667H4.83334V48.3333H53.1667Z" fill="#011034"/>
</svg>

<svg xmlns="http://www.w3.org/2000/svg" width="58" height="58" fill="none" viewBox="0 0 58 58">
  <path fill="#011034" d="M14.5 7.25a4.833 4.833 0 0 0-4.833 4.833v26.584H14.5v2.416a2.424 2.424 0 0 0 2.417 2.417h2.416a2.424 2.424 0 0 0 2.417-2.417v-2.416h14.5v2.416a2.424 2.424 0 0 0 2.417 2.417h2.416a2.424 2.424 0 0 0 2.417-2.417v-2.416h4.833V12.083A4.834 4.834 0 0 0 43.5 7.25h-29ZM29 16.917v-4.834h14.5v4.834H29Zm0 4.833h14.5v4.833H29V21.75Zm-9.667-9.667v9.667h4.834l-7.25 14.5v-9.667h-4.834l7.25-14.5Zm33.834 36.25v4.834H4.833v-4.834h48.334Z"/>
</svg>
